public/assets/dark/logo.svg

<?xml version="1.0" encoding="UTF-8"?>
<svg viewBox="0 0 82 29" xmlns="http://www.w3.org/2000/svg">
<path d="m10.68 24c-0.16 0-0.272-0.072-0.336-0.216l-3-6.648c-0.032-0.064-0.08-0.096-0.144-0.096h-2.232c-0.08 0-0.12 0.04-0.12 0.12v6.552c0 0.08-0.032 0.152-0.096 0.216-0.048 0.048-0.112 0.072-0.192 0.072h-2.808c-0.08 0-0.152-0.024-0.216-0.072-0.048-0.064-0.072-0.136-0.072-0.216v-16.224c0-0.08 0.024-0.144 0.072-0.192 0.064-0.064 0.136-0.096 0.216-0.096h6.864c1.024 0 1.92 0.208 2.688 0.624 0.784 0.416 1.384 1.008 1.8 1.776 0.432 0.768 0.648 1.656 0.648 2.664 0 1.088-0.272 2.024-0.816 2.808-0.544 0.768-1.304 1.312-2.28 1.632-0.08 0.032-0.104 0.088-0.072 0.168l3.264 6.792c0.032 0.064 0.048 0.112 0.048 0.144 0 0.128-0.088 0.192-0.264 0.192h-2.952zm-5.712-13.896c-0.08 0-0.12 0.04-0.12 0.12v4.104c0 0.08 0.04 0.12 0.12 0.12h3.144c0.672 0 1.216-0.2 1.632-0.6 0.432-0.4 0.648-0.92 0.648-1.56s-0.216-1.16-0.648-1.56c-0.416-0.416-0.96-0.624-1.632-0.624h-3.144zm22.27 13.896c-0.16 0-0.264-0.08-0.312-0.24l-0.72-2.352c-0.032-0.064-0.072-0.096-0.12-0.096h-5.904c-0.048 0-0.088 0.032-0.12 0.096l-0.696 2.352c-0.048 0.16-0.152 0.24-0.312 0.24h-3.048c-0.096 0-0.168-0.024-0.216-0.072-0.048-0.064-0.056-0.152-0.024-0.264l5.184-16.224c0.048-0.16 0.152-0.24 0.3119-0.24h3.7681c0.16 0 0.264 0.08 0.312 0.24l5.184 16.224c0.016 0.032 0.024 0.072 0.024 0.12 0 0.144-0.088 0.216-0.264 0.216h-3.048zm-6.312-5.448c-0.016 0.096 0.016 0.144 0.096 0.144h4.224c0.096 0 0.128-0.048 0.096-0.144l-2.16-7.128c-0.016-0.064-0.04-0.088-0.072-0.072-0.032 0-0.056 0.024-0.072 0.072l-2.112 7.128zm23.374-8.736c0 0.08-0.032 0.152-0.096 0.216-0.048 0.048-0.112 0.072-0.192 0.072h-7.848c-0.08 0-0.12 0.04-0.12 0.12v3.72c0 0.08 0.04 0.12 0.12 0.12h5.16c0.08 0 0.144 0.032 0.192 0.096 0.064 0.048 0.096 0.112 0.096 0.192v2.328c0 0.08-0.032 0.152-0.096 0.216-0.048 0.048-0.112 0.072-0.192 0.072h-5.16c-0.08 0-0.12 0.04-0.12 0.12v6.624c0 0.08-0.032 0.152-0.096 0.216-0.048 0.048-0.112 0.072-0.192 0.072h-2.808c-0.08 0-0.152-0.024-0.216-0.072-0.048-0.064-0.072-0.136-0.072-0.216v-16.224c0-0.08 0.024-0.144 0.072-0.192 0.064-0.064 0.136-0.096 0.216-0.096h11.064c0.08 0 0.144 0.032 0.192 0.096 0.064 0.048 0.096 0.112 0.096 0.192v2.328zm10.595 14.184c-0.16 0-0.264-0.08-0.312-0.24l-0.72-2.352c-0.032-0.064-0.072-0.096-0.12-0.096h-5.904c-0.048 0-0.088 0.032-0.12 0.096l-0.696 2.352c-0.048 0.16-0.152 0.24-0.312 0.24h-3.048c-0.096 0-0.168-0.024-0.216-0.072-0.048-0.064-0.056-0.152-0.024-0.264l5.184-16.224c0.048-0.16 0.152-0.24 0.312-0.24h3.768c0.16 0 0.264 0.08 0.312 0.24l5.184 16.224c0.016 0.032 0.024 0.072 0.024 0.12 0 0.144-0.088 0.216-0.264 0.216h-3.048zm-6.312-5.448c-0.016 0.096 0.016 0.144 0.096 0.144h4.224c0.096 0 0.128-0.048 0.096-0.144l-2.16-7.128c-0.016-0.064-0.04-0.088-0.072-0.072-0.032 0-0.056 0.024-0.072 0.072l-2.112 7.128z" fill="#F0F5EF"/>
<path d="m60.488 26c-0.1067 0-0.16-0.0533-0.16-0.16v-10.88c0-0.1067 0.0533-0.16 0.16-0.16h3.12c0.9493 0 1.696 0.272 2.24 0.816 0.5547 0.544 0.832 1.2853 0.832 2.224v5.12c0 0.9387-0.2773 1.68-0.832 2.224-0.544 0.544-1.2907 0.816-2.24 0.816h-3.12zm0.976-1.056c0 0.0427 0.0213 0.064 0.064 0.064h2.096c0.5867-0.0107 1.0507-0.2027 1.392-0.576 0.3413-0.384 0.5173-0.9067 0.528-1.568v-4.928c0-0.6613-0.1707-1.184-0.512-1.568s-0.8107-0.576-1.408-0.576h-2.096c-0.0427 0-0.064 0.0213-0.064 0.064v9.088zm10.064 0.192c0.4053 0 0.752-0.1013 1.04-0.304 0.2986-0.2133 0.512-0.496 0.64-0.848 0.032-0.096 0.096-0.1333 0.192-0.112l0.736 0.144c0.0533 0.0107 0.0853 0.0373 0.096 0.08 0.0213 0.032 0.0266 0.0693 0.016 0.112-0.1814 0.5973-0.512 1.0667-0.992 1.408s-1.0614 0.512-1.744 0.512c-0.7787 0-1.4134-0.2027-1.904-0.608-0.4907-0.416-0.7947-0.976-0.912-1.68-0.0427-0.2667-0.0694-0.5813-0.08-0.944-0.0107-0.3627-0.016-0.6613-0.016-0.896v-0.512c0-0.544 0.0213-0.9867 0.064-1.328 0.0853-0.7147 0.3786-1.2907 0.88-1.728 0.512-0.4373 1.152-0.656 1.92-0.656 0.8213 0 1.488 0.2347 2 0.704s0.8 1.088 0.864 1.856c0.032 0.352 0.048 0.9973 0.048 1.936 0 0.1067-0.0534 0.16-0.16 0.16h-4.416c-0.0427 0-0.064 0.0213-0.064 0.064 0 0.3307 0.0106 0.6987 0.032 1.104 0.0533 0.4587 0.2346 0.832 0.544 1.12 0.32 0.2773 0.7253 0.416 1.216 0.416zm-0.048-6.368c-0.48 0-0.8747 0.144-1.184 0.432-0.2987 0.2773-0.4747 0.6453-0.528 1.104-0.0214 0.448-0.032 0.8213-0.032 1.12 0 0.0427 0.0213 0.064 0.064 0.064h3.376c0.0426 0 0.064-0.0213 0.064-0.064 0-0.3093-0.0214-0.6773-0.064-1.104-0.0534-0.4587-0.2347-0.832-0.544-1.12-0.2987-0.288-0.6827-0.432-1.152-0.432zm6.527 7.232c-0.0854 0-0.144-0.0427-0.176-0.128l-2.32-7.792-0.016-0.048c0-0.0853 0.0533-0.128 0.16-0.128h0.896c0.096 0 0.1546 0.048 0.176 0.144l1.696 6.24c0.0106 0.0213 0.0213 0.032 0.032 0.032 0.0213 0 0.0373-0.0107 0.048-0.032l1.68-6.24c0.0213-0.096 0.08-0.144 0.176-0.144l0.912 0.016c0.0533 0 0.0906 0.016 0.112 0.048 0.032 0.032 0.0426 0.0747 0.032 0.128l-2.304 7.776c-0.032 0.0853-0.0907 0.128-0.176 0.128h-0.928z" fill="#980F1F"/>
</svg>

<svg width="82" height="29" viewBox="0 0 82 29" fill="none" xmlns="http://www.w3.org/2000/svg">
<path d="M10.68 24C10.52 24 10.408 23.928 10.344 23.784L7.344 17.136C7.312 17.072 7.264 17.04 7.2 17.04H4.968C4.888 17.04 4.848 17.08 4.848 17.16V23.712C4.848 23.792 4.816 23.864 4.752 23.928C4.704 23.976 4.64 24 4.56 24H1.752C1.672 24 1.6 23.976 1.536 23.928C1.488 23.864 1.464 23.792 1.464 23.712V7.488C1.464 7.408 1.488 7.344 1.536 7.296C1.6 7.232 1.672 7.2 1.752 7.2H8.616C9.64 7.2 10.536 7.408 11.304 7.824C12.088 8.24 12.688 8.832 13.104 9.6C13.536 10.368 13.752 11.256 13.752 12.264C13.752 13.352 13.48 14.288 12.936 15.072C12.392 15.84 11.632 16.384 10.656 16.704C10.576 16.736 10.552 16.792 10.584 16.872L13.848 23.664C13.88 23.728 13.896 23.776 13.896 23.808C13.896 23.936 13.808 24 13.632 24H10.68ZM4.968 10.104C4.888 10.104 4.848 10.144 4.848 10.224V14.328C4.848 14.408 4.888 14.448 4.968 14.448H8.112C8.784 14.448 9.328 14.248 9.744 13.848C10.176 13.448 10.392 12.928 10.392 12.288C10.392 11.648 10.176 11.128 9.744 10.728C9.328 10.312 8.784 10.104 8.112 10.104H4.968ZM27.2378 24C27.0778 24 26.9738 23.92 26.9258 23.76L26.2058 21.408C26.1738 21.344 26.1338 21.312 26.0858 21.312H20.1818C20.1338 21.312 20.0938 21.344 20.0618 21.408L19.3658 23.76C19.3178 23.92 19.2138 24 19.0538 24H16.0058C15.9098 24 15.8378 23.976 15.7898 23.928C15.7418 23.864 15.7338 23.776 15.7658 23.664L20.9498 7.44C20.9978 7.28 21.1018 7.2 21.2617 7.2H25.0298C25.1898 7.2 25.2938 7.28 25.3418 7.44L30.5258 23.664C30.5418 23.696 30.5498 23.736 30.5498 23.784C30.5498 23.928 30.4618 24 30.2858 24H27.2378ZM20.9258 18.552C20.9098 18.648 20.9418 18.696 21.0218 18.696H25.2458C25.3418 18.696 25.3738 18.648 25.3418 18.552L23.1818 11.424C23.1658 11.36 23.1418 11.336 23.1098 11.352C23.0778 11.352 23.0538 11.376 23.0378 11.424L20.9258 18.552ZM44.2993 9.816C44.2993 9.896 44.2673 9.968 44.2033 10.032C44.1553 10.08 44.0913 10.104 44.0113 10.104H36.1633C36.0833 10.104 36.0433 10.144 36.0433 10.224V13.944C36.0433 14.024 36.0833 14.064 36.1633 14.064H41.3233C41.4033 14.064 41.4673 14.096 41.5153 14.16C41.5793 14.208 41.6113 14.272 41.6113 14.352V16.68C41.6113 16.76 41.5793 16.832 41.5153 16.896C41.4673 16.944 41.4033 16.968 41.3233 16.968H36.1633C36.0833 16.968 36.0433 17.008 36.0433 17.088V23.712C36.0433 23.792 36.0113 23.864 35.9473 23.928C35.8993 23.976 35.8353 24 35.7553 24H32.9473C32.8673 24 32.7953 23.976 32.7313 23.928C32.6833 23.864 32.6593 23.792 32.6593 23.712V7.488C32.6593 7.408 32.6833 7.344 32.7313 7.296C32.7953 7.232 32.8673 7.2 32.9473 7.2H44.0113C44.0913 7.2 44.1553 7.232 44.2033 7.296C44.2673 7.344 44.2993 7.408 44.2993 7.488V9.816ZM54.894 24C54.734 24 54.63 23.92 54.582 23.76L53.862 21.408C53.83 21.344 53.79 21.312 53.742 21.312H47.838C47.79 21.312 47.75 21.344 47.718 21.408L47.022 23.76C46.974 23.92 46.87 24 46.71 24H43.662C43.566 24 43.494 23.976 43.446 23.928C43.398 23.864 43.39 23.776 43.422 23.664L48.606 7.44C48.654 7.28 48.758 7.2 48.918 7.2H52.686C52.846 7.2 52.95 7.28 52.998 7.44L58.182 23.664C58.198 23.696 58.206 23.736 58.206 23.784C58.206 23.928 58.118 24 57.942 24H54.894ZM48.582 18.552C48.566 18.648 48.598 18.696 48.678 18.696H52.902C52.998 18.696 53.03 18.648 52.998 18.552L50.838 11.424C50.822 11.36 50.798 11.336 50.766 11.352C50.734 11.352 50.71 11.376 50.694 11.424L48.582 18.552Z" fill="#F0F5EF"/>
<path d="M60.488 26C60.3813 26 60.328 25.9467 60.328 25.84V14.96C60.328 14.8533 60.3813 14.8 60.488 14.8H63.608C64.5573 14.8 65.304 15.072 65.848 15.616C66.4027 16.16 66.68 16.9013 66.68 17.84V22.96C66.68 23.8987 66.4027 24.64 65.848 25.184C65.304 25.728 64.5573 26 63.608 26H60.488ZM61.464 24.944C61.464 24.9867 61.4853 25.008 61.528 25.008H63.624C64.2107 24.9973 64.6747 24.8053 65.016 24.432C65.3573 24.048 65.5333 23.5253 65.544 22.864V17.936C65.544 17.2747 65.3733 16.752 65.032 16.368C64.6907 15.984 64.2213 15.792 63.624 15.792H61.528C61.4853 15.792 61.464 15.8133 61.464 15.856V24.944ZM71.5279 25.136C71.9332 25.136 72.2799 25.0347 72.5679 24.832C72.8665 24.6187 73.0799 24.336 73.2079 23.984C73.2399 23.888 73.3039 23.8507 73.3999 23.872L74.1359 24.016C74.1892 24.0267 74.2212 24.0533 74.2319 24.096C74.2532 24.128 74.2585 24.1653 74.2479 24.208C74.0665 24.8053 73.7359 25.2747 73.2559 25.616C72.7759 25.9573 72.1945 26.128 71.5119 26.128C70.7332 26.128 70.0985 25.9253 69.6079 25.52C69.1172 25.104 68.8132 24.544 68.6959 23.84C68.6532 23.5733 68.6265 23.2587 68.6159 22.896C68.6052 22.5333 68.5999 22.2347 68.5999 22C68.5999 21.7547 68.5999 21.584 68.5999 21.488C68.5999 20.944 68.6212 20.5013 68.6639 20.16C68.7492 19.4453 69.0425 18.8693 69.5439 18.432C70.0559 17.9947 70.6959 17.776 71.4639 17.776C72.2852 17.776 72.9519 18.0107 73.4639 18.48C73.9759 18.9493 74.2639 19.568 74.3279 20.336C74.3599 20.688 74.3759 21.3333 74.3759 22.272C74.3759 22.3787 74.3225 22.432 74.2159 22.432H69.7999C69.7572 22.432 69.7359 22.4533 69.7359 22.496C69.7359 22.8267 69.7465 23.1947 69.7679 23.6C69.8212 24.0587 70.0025 24.432 70.3119 24.72C70.6319 24.9973 71.0372 25.136 71.5279 25.136ZM71.4799 18.768C70.9999 18.768 70.6052 18.912 70.2959 19.2C69.9972 19.4773 69.8212 19.8453 69.7679 20.304C69.7465 20.752 69.7359 21.1253 69.7359 21.424C69.7359 21.4667 69.7572 21.488 69.7999 21.488H73.1759C73.2185 21.488 73.2399 21.4667 73.2399 21.424C73.2399 21.1147 73.2185 20.7467 73.1759 20.32C73.1225 19.8613 72.9412 19.488 72.6319 19.2C72.3332 18.912 71.9492 18.768 71.4799 18.768ZM78.0069 26C77.9215 26 77.8629 25.9573 77.8309 25.872L75.5109 18.08L75.4949 18.032C75.4949 17.9467 75.5482 17.904 75.6549 17.904H76.5509C76.6469 17.904 76.7055 17.952 76.7269 18.048L78.4229 24.288C78.4335 24.3093 78.4442 24.32 78.4549 24.32C78.4762 24.32 78.4922 24.3093 78.5029 24.288L80.1829 18.048C80.2042 17.952 80.2629 17.904 80.3589 17.904L81.2709 17.92C81.3242 17.92 81.3615 17.936 81.3829 17.968C81.4149 18 81.4255 18.0427 81.4149 18.096L79.1109 25.872C79.0789 25.9573 79.0202 26 78.9349 26H78.0069Z" fill="#980F1F"/>
</svg>
